sitelenpona/static/nja-1.svg

<svg xmlns="http://www.w3.org/2000/svg" xmlns:xlink="http://www.w3.org/1999/xlink" version="1.1" viewBox="22 -19 953 874">
   <path fill="currentColor" d="M689 529l5 1q4 1 6 1q4 0 14.5 23t10.5 30q0 4 -4 4t-6.5 8t-5.5 19.5t-8 16.5q-4 4 -9 11.5t-11.5 14t-18.5 12.5q-18 8 -26 8q-14 0 -47.5 -6.5t-39.5 -12.5q-7 -5 -10 -5q-2 0 -19.5 7t-38.5 7q-33 0 -52 -17q-29 -27 -34 -37t-5 -43v-40l17 1q17 2 17 6q0 2 6.5 13.5 t6.5 18.5q0 8 4 8q3 0 4 4t6.5 11t18.5 13q15 6 24 6t9 -8q0 -4 7 -9t8 -15q2 -22 25 -22q10 0 17.5 4.5t7.5 9.5q0 12 27 30q39 27 50 1q3 -8 3 -19q0 -25 15.5 -40t25.5 -15zM402 273q12 0 17.5 -3.5t8.5 -7t23.5 -7t58.5 -3.5q109 0 126 13q3 3 28 11.5t29 12.5 q1 1 30 24t40 38q16 20 33 37q20 20 20.5 44.5t10.5 46.5q10 21 10 68q0 78 -8 93q-7 14 -7 21q0 10 -12.5 33t-20.5 28q-10 5 -10 13q0 4 -5 7.5t-15.5 10.5t-18.5 16q-11 12 -24.5 16.5t-21.5 5t-8 3.5q0 4 -16.5 6.5t-34.5 5.5t-20 7q-1 2 -5 2q-2 0 -11 -1.5t-27 -3.5 t-41 -2q-35 -1 -65.5 -8t-49.5 -17.5t-32.5 -20.5t-21 -17t-9.5 -7t-18.5 -24t-21.5 -26t-12.5 -18t-10.5 -18t-6 -23.5t-9 -27.5q-8 -8 -13 -35.5t-6.5 -46.5t-1.5 -24q0 -17 7 -34t15 -29.5t9 -16.5q2 -10 11.5 -24.5t9.5 -18.5q0 -3 16.5 -19t16.5 -21q0 -18 23.5 -35.5 t23.5 -18.5q0 -5 16 -5zM782 548q0 -20 -3 -35t-5 -19l-2 -5q1 0 -3 -9.5t-8.5 -21.5t-4.5 -18q0 -13 -28.5 -43t-57.5 -48q-17 -11 -17 -14q0 -4 -25 -11q-25 -8 -101 -8q-51 0 -64.5 1.5t-19.5 7.5t-18 11.5t-14 11.5t-27 27t-30 31q-7 13 -11 13q-3 0 -1.5 9.5t-2.5 9.5 q-5 0 -15 16.5t-10 24.5q0 10 -4 13.5t-4 16.5q0 15 5.5 30t5.5 20v6q0 7 6 18t6 15t14.5 21.5t14.5 22.5q0 6 4 6q5 0 5 7t25.5 32.5t35.5 28.5q13 4 26 12q29 17 110 17q33 0 53.5 -6.5t23.5 -7.5q58 -9 90 -44q22 -25 30 -37t14.5 -37t6.5 -65zM283 114q10 0 48 35.5 t38 49.5q0 7 -5.5 14t-10.5 10t-7 3q-9 0 -67.5 -49t-67.5 -49q-3 0 -23.5 -9t-35.5 -9q-16 0 -19 3t-2 14t6.5 24t5.5 17q0 13 14 37.5t22 32.5q10 8 10 13q0 3 11.5 13.5t11.5 15.5q0 4 10 13.5t10 21.5q0 3 -1.5 9t-2 9t0.5 6q2 3 -14 14l-17 10l-19 -19q-11 -11 -22 -25 t-17 -22.5t-10 -10.5q-7 -4 -7 -10q0 -5 -13.5 -17.5t-13.5 -13.5h1q1 0 1 -1t-8 -15t-16 -38t-8 -50q0 -21 4 -37q8 -34 17.5 -43t40.5 -13q24 -3 33 -1q37 11 72.5 28.5t39.5 27.5q5 11 10 11zM834 333q-9 0 -22.5 -6t-13.5 -18q0 -11 12 -37t19 -32q7 -5 7 -11 q0 -7 6 -13q7 -7 16.5 -36t9.5 -42q0 -55 -41 -55q-12 0 -17.5 3t-17 11.5t-29.5 16.5q-20 9 -39.5 27.5t-19.5 28.5q0 5 -16.5 19t-22.5 14q-10 0 -20.5 -11t-10.5 -21q0 -13 13.5 -32t29.5 -29q9 -6 36 -32t37 -28q1 0 38.5 -14.5t53.5 -14.5q15 0 30 7t22 13.5t7 8.5 q0 4 11 17q20 21 20 82q0 5 -8.5 25.5t-8.5 30.5q0 8 -6 15.5t-6 11.5q-3 22 -7 27.5t-11 12t-14 25.5q-13 36 -37 36z"/>
</svg>

<svg xmlns="http://www.w3.org/2000/svg" xmlns:xlink="http://www.w3.org/1999/xlink" version="1.1" viewBox="22 -19 953 874">
  <g>
    <path fill="currentColor" d="M 689.0,529.0 L 694.0,530.0 Q 698.0,531.0 700.0,531.0 Q 704.0,531.0 714.5,554.0 Q 725.0,577.0 725.0,584.0 Q 725.0,588.0 721.0,588.0 Q 717.0,588.0 714.5,596.0 Q 712.0,604.0 709.0,615.5 Q 706.0,627.0 701.0,632.0 Q 697.0,636.0 692.0,643.5 Q 687.0,651.0 680.5,657.5 Q 674.0,664.0 662.0,670.0 Q 644.0,678.0 636.0,678.0 Q 622.0,678.0 588.5,671.5 Q 555.0,665.0 549.0,659.0 Q 542.0,654.0 539.0,654.0 Q 537.0,654.0 519.5,661.0 Q 502.0,668.0 481.0,668.0 Q 448.0,668.0 429.0,651.0 Q 400.0,624.0 395.0,614.0 Q 390.0,604.0 390.0,571.0 L 390.0,531.0 L 407.0,532.0 Q 424.0,534.0 424.0,538.0 Q 424.0,540.0 430.5,551.5 Q 437.0,563.0 437.0,570.0 Q 437.0,578.0 441.0,578.0 Q 444.0,578.0 445.0,582.0 Q 446.0,586.0 451.5,593.0 Q 457.0,600.0 470.0,606.0 Q 485.0,612.0 494.0,612.0 Q 503.0,612.0 503.0,604.0 Q 503.0,600.0 510.0,595.0 Q 517.0,590.0 518.0,580.0 Q 520.0,558.0 543.0,558.0 Q 553.0,558.0 560.5,562.5 Q 568.0,567.0 568.0,572.0 Q 568.0,584.0 595.0,602.0 Q 634.0,629.0 645.0,603.0 Q 648.0,595.0 648.0,584.0 Q 648.0,559.0 663.5,544.0 Q 679.0,529.0 689.0,529.0 M 402.0,273.0 Q 414.0,273.0 419.5,269.5 Q 425.0,266.0 428.0,262.5 Q 431.0,259.0 451.5,255.5 Q 472.0,252.0 510.0,252.0 Q 619.0,252.0 636.0,265.0 Q 639.0,268.0 664.0,276.5 Q 689.0,285.0 693.0,289.0 Q 694.0,290.0 723.0,313.0 Q 752.0,336.0 763.0,351.0 Q 779.0,371.0 796.0,388.0 Q 816.0,408.0 816.5,432.5 Q 817.0,457.0 827.0,479.0 Q 837.0,500.0 837.0,547.0 Q 837.0,625.0 829.0,640.0 Q 822.0,654.0 822.0,661.0 Q 822.0,671.0 809.5,694.0 Q 797.0,717.0 789.0,722.0 Q 779.0,727.0 779.0,735.0 Q 779.0,739.0 774.0,742.5 Q 769.0,746.0 758.5,753.0 Q 748.0,760.0 740.0,769.0 Q 729.0,781.0 715.5,785.5 Q 702.0,790.0 694.0,790.5 Q 686.0,791.0 686.0,794.0 Q 686.0,798.0 669.5,800.5 Q 653.0,803.0 635.0,806.0 Q 617.0,809.0 615.0,813.0 Q 614.0,815.0 610.0,815.0 Q 608.0,815.0 599.0,813.5 Q 590.0,812.0 572.0,810.0 Q 554.0,808.0 531.0,808.0 Q 496.0,807.0 465.5,800.0 Q 435.0,793.0 416.0,782.5 Q 397.0,772.0 383.5,762.0 Q 370.0,752.0 362.5,745.0 Q 355.0,738.0 353.0,738.0 Q 351.0,738.0 334.5,714.0 Q 318.0,690.0 313.0,688.0 Q 308.0,686.0 300.5,670.0 Q 293.0,654.0 290.0,652.0 Q 287.0,650.0 284.0,628.5 Q 281.0,607.0 275.0,601.0 Q 267.0,593.0 262.0,565.5 Q 257.0,538.0 255.5,519.0 Q 254.0,500.0 254.0,495.0 Q 254.0,478.0 261.0,461.0 Q 268.0,444.0 276.0,431.5 Q 284.0,419.0 285.0,415.0 Q 287.0,405.0 296.5,390.5 Q 306.0,376.0 306.0,372.0 Q 306.0,369.0 322.5,353.0 Q 339.0,337.0 339.0,332.0 Q 339.0,314.0 362.5,296.5 Q 386.0,279.0 386.0,278.0 Q 386.0,273.0 402.0,273.0 M 782.0,548.0 Q 782.0,528.0 779.0,513.0 Q 776.0,498.0 774.0,494.0 L 772.0,489.0 Q 773.0,489.0 769.0,479.5 Q 765.0,470.0 760.5,458.0 Q 756.0,446.0 756.0,440.0 Q 756.0,427.0 727.5,397.0 Q 699.0,367.0 670.0,349.0 Q 653.0,338.0 653.0,335.0 Q 653.0,331.0 628.0,324.0 Q 603.0,316.0 527.0,316.0 Q 476.0,316.0 462.5,317.5 Q 449.0,319.0 443.0,325.0 Q 437.0,331.0 425.0,336.5 Q 413.0,342.0 411.0,348.0 Q 409.0,354.0 384.0,375.0 Q 359.0,396.0 354.0,406.0 Q 347.0,419.0 343.0,419.0 Q 340.0,419.0 341.5,428.5 Q 343.0,438.0 339.0,438.0 Q 334.0,438.0 324.0,454.5 Q 314.0,471.0 314.0,479.0 Q 314.0,489.0 310.0,492.5 Q 306.0,496.0 306.0,509.0 Q 306.0,524.0 311.5,539.0 Q 317.0,554.0 317.0,559.0 L 317.0,565.0 Q 317.0,572.0 323.0,583.0 Q 329.0,594.0 329.0,598.0 Q 329.0,602.0 343.5,619.5 Q 358.0,637.0 358.0,642.0 Q 358.0,648.0 362.0,648.0 Q 367.0,648.0 367.0,655.0 Q 367.0,662.0 392.5,687.5 Q 418.0,713.0 428.0,716.0 Q 441.0,720.0 454.0,728.0 Q 483.0,745.0 564.0,745.0 Q 597.0,745.0 617.5,738.5 Q 638.0,732.0 641.0,731.0 Q 699.0,722.0 731.0,687.0 Q 753.0,662.0 761.0,650.0 Q 769.0,638.0 775.5,613.0 Q 782.0,588.0 782.0,548.0 M 283.0,114.0 Q 293.0,114.0 331.0,149.5 Q 369.0,185.0 369.0,199.0 Q 369.0,206.0 363.5,213.0 Q 358.0,220.0 353.0,223.0 Q 348.0,226.0 346.0,226.0 Q 337.0,226.0 278.5,177.0 Q 220.0,128.0 211.0,128.0 Q 208.0,128.0 187.5,119.0 Q 167.0,110.0 152.0,110.0 Q 136.0,110.0 133.0,113.0 Q 130.0,116.0 131.0,127.0 Q 132.0,138.0 137.5,151.0 Q 143.0,164.0 143.0,168.0 Q 143.0,181.0 157.0,205.5 Q 171.0,230.0 179.0,238.0 Q 189.0,246.0 189.0,251.0 Q 189.0,254.0 200.5,264.5 Q 212.0,275.0 212.0,280.0 Q 212.0,284.0 222.0,293.5 Q 232.0,303.0 232.0,315.0 Q 232.0,318.0 230.5,324.0 Q 229.0,330.0 228.5,333.0 Q 228.0,336.0 229.0,339.0 Q 231.0,342.0 215.0,353.0 L 198.0,363.0 L 179.0,344.0 Q 168.0,333.0 157.0,319.0 Q 146.0,305.0 140.0,296.5 Q 134.0,288.0 130.0,286.0 Q 123.0,282.0 123.0,276.0 Q 123.0,271.0 109.5,258.5 Q 96.0,246.0 96.0,245.0 L 97.0,245.0 Q 98.0,245.0 98.0,244.0 Q 98.0,243.0 90.0,229.0 Q 82.0,215.0 74.0,191.0 Q 66.0,167.0 66.0,141.0 Q 66.0,120.0 70.0,104.0 Q 78.0,70.0 87.5,61.0 Q 97.0,52.0 128.0,48.0 Q 152.0,45.0 161.0,47.0 Q 198.0,58.0 233.5,75.5 Q 269.0,93.0 273.0,103.0 Q 278.0,114.0 283.0,114.0 M 834.0,333.0 Q 825.0,333.0 811.5,327.0 Q 798.0,321.0 798.0,309.0 Q 798.0,298.0 810.0,272.0 Q 822.0,246.0 829.0,240.0 Q 836.0,235.0 836.0,229.0 Q 836.0,222.0 842.0,216.0 Q 849.0,209.0 858.5,180.0 Q 868.0,151.0 868.0,138.0 Q 868.0,83.0 827.0,83.0 Q 815.0,83.0 809.5,86.0 Q 804.0,89.0 792.5,97.5 Q 781.0,106.0 763.0,114.0 Q 743.0,123.0 723.5,141.5 Q 704.0,160.0 704.0,170.0 Q 704.0,175.0 687.5,189.0 Q 671.0,203.0 665.0,203.0 Q 655.0,203.0 644.5,192.0 Q 634.0,181.0 634.0,171.0 Q 634.0,158.0 647.5,139.0 Q 661.0,120.0 677.0,110.0 Q 686.0,104.0 713.0,78.0 Q 740.0,52.0 750.0,50.0 Q 751.0,50.0 788.5,35.5 Q 826.0,21.0 842.0,21.0 Q 857.0,21.0 872.0,28.0 Q 887.0,35.0 894.0,41.5 Q 901.0,48.0 901.0,50.0 Q 901.0,54.0 912.0,67.0 Q 932.0,88.0 932.0,149.0 Q 932.0,154.0 923.5,174.5 Q 915.0,195.0 915.0,205.0 Q 915.0,213.0 909.0,220.5 Q 903.0,228.0 903.0,232.0 Q 900.0,254.0 896.0,259.5 Q 892.0,265.0 885.0,271.5 Q 878.0,278.0 871.0,297.0 Q 858.0,333.0 834.0,333.0"/>
  </g>
</svg>
